Default.style/ATM.svg

<?xml version="1.0" encoding="UTF-8" standalone="no"?>
<svg width="34px" height="33px" viewBox="0 0 34 33" version="1.1" xmlns="http://www.w3.org/2000/svg" xmlns:xlink="http://www.w3.org/1999/xlink" xmlns:sketch="http://www.bohemiancoding.com/sketch/ns">
    <!-- Generator: Sketch 3.2.2 (9983) - http://www.bohemiancoding.com/sketch -->
    <title>cash_machine</title>
    <desc>Created with Sketch.</desc>
    <defs></defs>
    <g id="p" stroke="none" stroke-width="1" fill="none" fill-rule="evenodd" sketch:type="MSPage">
        <g id="cash_machine" sketch:type="MSLayerGroup" fill="#888888">
            <path d="M7.047,0 C2.05,0 0,4.051 0,9.047 C0,13.889 2.38199993,17.8070009 7.04699993,18.0470009 C7.04699993,18.0470009 7.04699986,12.0950005 7.04699993,12.0950003 C6.16999993,11.8220003 5.313,10.013 5.313,9.046 C5.313,7.855 6.278,5.89 7.469,5.89 L26.532,5.89 C27.722,5.89 28.688,7.855 28.688,9.046 C28.688,9.851 27.6069997,11.7240003 26.9519997,12.0950003 L26.9519997,18.0470009 C31.3009997,17.5870009 33.999,13.734 33.999,9.046 C34.001,4.05 31.95,0 26.952,0 L7.047,0 Z M27,33 L7,33 L7,9 L27,9 L27,33 L27,33 Z M9,31 L25,31 L25,11 L9,11 L9,31 L9,31 Z M18.1665522,27.9825141 L18.1665522,30 L16.7973901,30 L16.7973901,28.0386973 C15.5291896,28.0325682 14.3475275,27.7475664 13.2534341,27.1836919 L13.2534341,24.6084605 C13.6160714,24.8995914 14.1569368,25.1692705 14.875,25.4164764 C15.5940934,25.6657253 16.2348901,25.8077154 16.7973901,25.8455114 L16.7973901,22.4622642 C15.334478,21.9239274 14.3351648,21.3386011 13.801511,20.7103713 C13.2678571,20.0821416 13,19.3139647 13,18.4099267 C13,17.4374474 13.3482143,16.6079798 14.040522,15.9235669 C14.7348901,15.2391539 15.6528159,14.8397428 16.7973901,14.728398 L16.7973901,13 L18.165522,13 L18.165522,14.6906021 C19.4852335,14.7539358 20.4690934,14.9643673 21.1191621,15.3229179 L21.1191621,17.8327725 C20.2445055,17.3056724 19.2596154,16.9849177 18.165522,16.8674438 L18.165522,20.3906381 C19.5357143,20.8799423 20.5154533,21.4387093 21.1088599,22.0689821 C21.7022665,22.6972119 22,23.4572167 22,24.3510395 C22,25.3786804 21.6682692,26.2081481 21.0058379,26.8373994 C20.3444368,27.4635861 19.3986951,27.846653 18.1665522,27.9825141 L18.1665522,27.9825141 Z M16.9649969,19.883 L16.9649969,16.998 C16.1219969,17.15 15.6999969,17.59 15.6999969,18.318 C15.6999969,18.943 16.1219969,19.465 16.9649969,19.883 L16.9649969,19.883 Z M18,25.715 C18.867,25.582 19.301,25.149 19.301,24.414 C19.301,23.821 18.867,23.336 18,22.959 L18,25.715 Z" id="Shape" sketch:type="MSShapeGroup"></path>
        </g>
    </g>
</svg>

<svg width="34" height="33" xmlns="http://www.w3.org/2000/svg"><path d="M7.047 0C2.05 0 0 4.051 0 9.047c0 4.842 2.382 8.76 7.047 9v-5.952c-.877-.273-1.734-2.082-1.734-3.049 0-1.191.965-3.156 2.156-3.156h19.063c1.19 0 2.156 1.965 2.156 3.156 0 .805-1.081 2.678-1.736 3.049v5.952c4.349-.46 7.047-4.313 7.047-9.001C34.001 4.05 31.95 0 26.952 0H7.047ZM27 33H7V9h20v24ZM9 31h16V11H9v20Zm9.167-3.017V30h-1.37v-1.961a7.708 7.708 0 0 1-3.544-.855v-2.576c.363.292.904.561 1.622.808.72.25 1.36.392 1.922.43v-3.384c-1.463-.538-2.462-1.123-2.995-1.752-.534-.628-.802-1.396-.802-2.3a3.37 3.37 0 0 1 1.04-2.486c.695-.685 1.613-1.084 2.757-1.196V13h1.369v1.69c1.32.064 2.303.274 2.953.633v2.51c-.874-.527-1.86-.848-2.953-.966v3.524c1.37.489 2.35 1.048 2.943 1.678.593.628.891 1.388.891 2.282 0 1.028-.332 1.857-.994 2.486-.662.627-1.607 1.01-2.84 1.146Zm-1.202-8.1v-2.885c-.843.152-1.265.592-1.265 1.32 0 .625.422 1.147 1.265 1.565ZM18 25.715c.867-.133 1.301-.566 1.301-1.301 0-.593-.434-1.078-1.301-1.455v2.756Z" fill="#888" fill-rule="evenodd"/></svg>
